icon-svg/panel-glass-door-open.svg

<?xml version="1.0" encoding="UTF-8"?>
<svg width="24px" height="24px" viewBox="0 0 24 24" version="1.1" fill="#44739e" xmlns="http://www.w3.org/2000/svg" xmlns:xlink="http://www.w3.org/1999/xlink">
            <path d="m 22.855469,3.0683594 -12.003907,0.00195 0.002,1.0429687 h 0.03516 L 10.875,23.097656 10.888672,4.1132812 1.5039062,4.1269531 c 0,0 -0.025882,12.7470369 0.021484,18.9707029 v 0.759766 H 22.855469 Z M 12.410156,4.0976562 h 9.341797 V 23.021484 l -9.341797,0.01563 z m -7.3554685,2.125 H 8.0253906 V 20.333984 H 5.0546875 Z m 0.2910156,0.28125 V 20.023438 H 7.7539062 V 6.5039062 Z M 5.7910156,6.953125 h 1.5 V 19.5625 h -1.5 z"></path>

</svg>

<svg xmlns="http://www.w3.org/2000/svg" fill="#44739e" viewBox="0 0 24 24"><path d="m22.8555 3.0684-12.004.002.002 1.0429h.0352l-.0137 18.9844.0137-18.9844-9.3848.0137s-.0259 12.747.0215 18.9707v.7597h21.33ZM12.4102 4.0977h9.3418v18.9238l-9.3418.0156zm-7.3555 2.125h2.9707V20.334H5.0547Zm.291.2812v13.5195h2.4082V6.504Zm.4453.4492h1.5v12.6094h-1.5z"/></svg>
